X: 14720
T: Gan Ainm
R: polka
M: 2/4
K: Dmajor
|:fz f>e|ed d>e|ef f>a|ag g2|
gz g>f|f>e e>d|dc Bc|dd d z:|
|:fc fc|fc/d/ c2|dB Bc|cF F2|
fc fc|fc/d/ c2|dc Bc|cF f2:|
K: Gmajor
D2 G>A|B3 B|cc Ec|B3 B|
dd AA|BB GG|AA EE|FF E^D|
D2 G>A|B3 B|cc Ec|B3 B|
dd AA|BB GG|AA EF|GG G2||

